img/js_file.svg

<svg width="60" height="60" viewBox="0 0 60 60" fill="none" xmlns="http://www.w3.org/2000/svg">
<g clip-path="url(#clip0_1_21680)">
<path d="M26.25 58.1325H5.625C4.63044 58.1325 3.67661 57.7374 2.97335 57.0341C2.27009 56.3309 1.875 55.3771 1.875 54.3825V5.6325C1.875 4.63794 2.27009 3.68411 2.97335 2.98085C3.67661 2.27759 4.63044 1.8825 5.625 1.8825H32.1975C32.6902 1.8826 33.1781 1.97981 33.6332 2.16855C34.0883 2.3573 34.5018 2.63388 34.85 2.9825L49.5275 17.66C49.8757 18.0084 50.1518 18.422 50.3401 18.8771C50.5284 19.3322 50.6252 19.82 50.625 20.3125V31.8825" stroke="#585E76" stroke-width="3.75" stroke-linecap="round" stroke-linejoin="round"/>
<path d="M50.625 20.6325H35.625C34.6304 20.6325 33.6766 20.2374 32.9733 19.5342C32.2701 18.8309 31.875 17.8771 31.875 16.8825V1.8825" stroke="#008A27" stroke-width="3.75" stroke-linecap="round" stroke-linejoin="round"/>
<path d="M43.125 39.3825V54.3825C43.125 55.3771 42.7299 56.3309 42.0266 57.0342C41.3234 57.7374 40.3696 58.1325 39.375 58.1325H35.625" stroke="#1672EB" stroke-width="3.75" stroke-linecap="round" stroke-linejoin="round"/>
<path d="M58.125 39.3825H54.375C53.3804 39.3825 52.4266 39.7776 51.7234 40.4809C51.0201 41.1841 50.625 42.1379 50.625 43.1325C50.625 48.7575 58.125 48.7575 58.125 54.3825C58.125 55.3771 57.7299 56.3309 57.0266 57.0342C56.3234 57.7374 55.3696 58.1325 54.375 58.1325H50.625" stroke="#1672EB" stroke-width="3.75" stroke-linecap="round" stroke-linejoin="round"/>
</g>
<defs>
<clipPath id="clip0_1_21680">
<rect width="60" height="60" fill="white"/>
</clipPath>
</defs>
</svg>

<svg width="60" height="60" fill="none" xmlns="http://www.w3.org/2000/svg">
    <g clip-path="url(#a)" stroke-width="3.75" stroke-linecap="round" stroke-linejoin="round">
        <path d="M26.25 58.133H5.625a3.75 3.75 0 0 1-3.75-3.75V5.633a3.75 3.75 0 0 1 3.75-3.75h26.572a3.75 3.75 0 0 1 2.653 1.1L49.528 17.66a3.75 3.75 0 0 1 1.097 2.652v11.57" stroke="#585E76"/>
        <path d="M50.625 20.633h-15a3.75 3.75 0 0 1-3.75-3.75v-15" stroke="#008A27"/>
        <path d="M43.125 39.383v15a3.75 3.75 0 0 1-3.75 3.75h-3.75m22.5-18.75h-3.75a3.75 3.75 0 0 0-3.75 3.75c0 5.624 7.5 5.624 7.5 11.25a3.75 3.75 0 0 1-3.75 3.75h-3.75" stroke="#1672EB"/>
    </g>
    <defs>
        <clipPath id="a">
            <path fill="#fff" d="M0 0h60v60H0z"/>
        </clipPath>
    </defs>
</svg>
